<?xml version="1.0" encoding="UTF-8"?>
<map version="1.10" tiledversion="1.11.2" orientation="orthogonal" renderorder="right-down" width="50" height="40" tilewidth="16" tileheight="16" infinite="0" nextlayerid="19" nextobjectid="80">
 <tileset firstgid="1" source="TexturasVerde.tsx"/>
 <tileset firstgid="6073" name="PokebolaVerde" tilewidth="16" tileheight="16" tilecount="100" columns="10">
  <image source="TileSets/PokebolasTiled.png" width="160" height="160"/>
  <tile id="0">
   <properties>
    <property name="Tipo" value="PokeballCura"/>
   </properties>
  </tile>
  <tile id="1">
   <properties>
    <property name="Tipo" value="PokeballCura"/>
   </properties>
  </tile>
  <tile id="2">
   <properties>
    <property name="Tipo" value="PokeballEXP"/>
   </properties>
  </tile>
  <tile id="3">
   <properties>
    <property name="Tipo" value="PokeballEXP"/>
   </properties>
  </tile>
  <tile id="10">
   <properties>
    <property name="Tipo" value="PokeballCura"/>
   </properties>
  </tile>
  <tile id="11">
   <properties>
    <property name="Tipo" value="PokeballCura"/>
   </properties>
  </tile>
  <tile id="12">
   <properties>
    <property name="Tipo" value="PokeballEXP"/>
   </properties>
  </tile>
  <tile id="13">
   <properties>
    <property name="Tipo" value="PokeballEXP"/>
   </properties>
  </tile>
 </tileset>
 <tileset firstgid="6173" source="NPC.tsx"/>
 <objectgroup id="5" name="Portal">
  <object id="3" name="PortalVerde" x="416" y="0.666667" width="31.8333" height="15.4167">
   <properties>
    <property name="Destino" value="MapaAzulPokemon"/>
   </properties>
  </object>
 </objectgroup>
 <objectgroup id="10" name="LogicaHierba">
  <object id="47" name="Hierba" x="31.489" y="160.144" width="190.733" height="209.627">
   <properties>
    <property name="Zona de hierba" value="True"/>
   </properties>
  </object>
  <object id="61" name="Hierba" x="719.5" y="319" width="48.5" height="239.5">
   <properties>
    <property name="Zona de hierba" value="True"/>
   </properties>
  </object>
  <object id="64" name="Hierba" x="511.5" y="335" width="225" height="224.5">
   <properties>
    <property name="Zona de hierba" value="True"/>
   </properties>
  </object>
  <object id="65" name="Hierba" x="609" y="561" width="79.5" height="47">
   <properties>
    <property name="Zona de hierba" value="True"/>
   </properties>
  </object>
 </objectgroup>
 <objectgroup id="17" name="Sentido">
  <object id="74" name="abajo1" x="416.011" y="15.997" width="15.9799" height="16.0169">
   <properties>
    <property name="Sentido" value="abajo1"/>
   </properties>
  </object>
  <object id="75" name="abajo2" x="463.992" y="447.985" width="16.0161" height="16.0568">
   <properties>
    <property name="Sentido" value="abajo2"/>
   </properties>
  </object>
  <object id="79" name="abajo3" x="368" y="448" width="15.75" height="16">
   <properties>
    <property name="Sentido" value="abajo3"/>
   </properties>
  </object>
 </objectgroup>
 <objectgroup id="18" name="PeleaBoss">
  <object id="76" name="Pelea" x="368.125" y="432" width="15.625" height="15.375">
   <properties>
    <property name="Pelea" value="boss2"/>
   </properties>
  </object>
 </objectgroup>
 <objectgroup id="12" name="PortalCentro">
  <object id="73" name="PortalCentro" x="462.818" y="431.818" width="18.0909" height="15.8182">
   <properties>
    <property name="Destino" value="MapaCentro"/>
   </properties>
  </object>
 </objectgroup>
 <layer id="1" name="Capa de patrones 1" width="50" height="40">
  <data encoding="csv">
271,272,271,272,271,272,271,272,271,272,271,272,271,272,271,272,271,272,271,272,271,272,271,272,271,272,2,2,271,272,271,272,271,272,3521,2289,2290,2290,1673,593,770,770,770,770,770,770,770,770,595,1675,
359,360,359,360,359,360,359,360,359,360,359,360,359,360,359,360,359,360,359,360,359,360,359,360,359,360,2,2,359,360,359,360,359,360,3521,2289,2290,2290,1761,681,1234,1234,1234,1234,1234,1234,1234,1234,683,1235,
271,272,271,272,271,272,271,272,271,272,271,272,271,272,271,272,271,272,2,2,2,2,2,2,2,2,2,2,2,2,2,2,2,2,3521,2289,2290,2290,1761,681,1234,1234,1234,1234,1234,1234,1234,1234,683,1235,
359,360,359,360,359,360,359,360,359,360,359,360,359,360,359,360,359,360,2,2,2,2,2,2,2,2,2,2,2,2,2,2,2,2,3521,2289,2290,2290,1761,681,1234,1234,1234,1234,1234,1234,1234,1234,683,1235,
271,272,271,272,2,2,2,2,271,272,271,272,271,272,2,2,2,2,2,2,2,2,2,2,2,2,2,2,2,2,2,329,330,331,3609,2289,2290,2290,1761,769,1234,1234,1234,1234,1234,1234,1234,1234,683,1235,
359,360,359,360,2,2,2,2,359,360,359,360,359,360,2,2,2,2,2,2,2,2,5105,5106,5106,5106,5106,5106,5106,5106,5106,5194,5194,5194,330,1446,1447,1448,1976,1234,1234,1234,1234,1234,1234,1234,1234,1234,683,1235,
271,272,2,2,2,2,2,2,271,272,2,2,2,2,2,2,2,2,2,2,2,2,5193,5194,5282,5282,5282,5282,5282,5282,5282,5194,5194,5194,506,1534,1535,1536,2064,1234,1234,1234,1234,1234,2384,1234,1234,1234,683,1235,
359,360,2,2,2,2,2,2,359,360,2,2,2,2,2,2,2,2,2,2,2,5105,5194,5195,2,2,2,2,2,2,2,505,506,507,3433,2289,2290,2290,1761,593,1234,1234,1234,1234,1234,1234,1234,2384,683,1235,
271,272,2,2,2,2,2,2,271,272,2,2,2,2,2,2,2,2,2,2,2,5193,5194,5195,2,44,44,44,2,2,2,44,44,44,3521,2289,2290,2290,1761,681,1234,1234,1234,1234,1234,1234,1234,1234,683,1235,
359,360,2,2,2,2,2,2,359,360,2,2,2,2,2,2,2,2,2,2,2,5193,5194,5195,2,2,2,2,2,2,2,2,2,2,3521,2289,2290,2290,1761,769,769,769,769,769,769,769,769,769,771,1235,
271,272,94,94,271,272,271,272,271,272,271,272,271,272,271,272,271,272,271,272,2,5193,5194,5195,2,44,44,44,2,2,2,44,44,44,3521,2289,2290,2290,1849,1850,1850,1850,1850,1850,1850,1850,1850,1850,1850,1851,
359,360,94,94,359,360,359,360,359,360,359,360,359,360,359,360,359,360,359,360,2,5193,5194,5195,2,44,44,44,2,2,2,44,44,44,3521,2289,2290,2290,2290,2290,2290,2290,2290,2290,2290,2290,2290,2290,2290,2290,
271,272,94,94,94,94,94,94,94,94,94,94,94,94,271,272,271,272,2,2,2,5193,5194,5195,2,44,44,44,2,44,2,44,44,44,3521,2289,2290,2290,2290,2290,2290,2290,2118,2290,2290,2290,2290,2290,2290,2290,
359,360,94,94,94,94,94,94,94,94,94,94,94,94,359,360,359,360,5105,5106,5106,5194,5194,5195,2,2,2,2,2,44,2,2,2,2,3521,2289,2290,2118,2290,2290,2290,2290,2290,2290,2290,2378,2378,2378,2378,2378,
271,272,94,94,94,94,94,94,94,94,94,94,94,94,271,272,271,272,5193,5194,5194,5194,5194,5195,2,44,2,2,2,2,2,2,2,44,3521,2289,2290,2290,2290,2290,2290,2290,2290,2290,2291,3522,3610,3610,3610,3435,
359,360,94,94,94,94,94,94,94,94,94,94,94,94,359,360,359,360,5193,5194,5194,5282,5282,5283,2,2,44,2,2,2,2,2,44,2,3521,2289,2290,2290,2290,2290,2290,2118,2290,2290,2291,3523,2,2,2,3523,
271,272,94,94,94,94,94,94,94,94,94,94,94,94,271,272,271,272,5193,5194,5195,2,2,2,2,2,2,44,44,44,44,44,2,2,3521,2377,2378,2378,2378,2378,2378,2378,2378,2378,2379,3523,2,2,271,272,
359,360,94,94,94,94,94,94,94,94,94,94,94,94,359,360,359,360,5193,5194,5195,2,2,2,2,2,2,2,44,44,44,2,2,2,3609,3610,3610,3610,3610,3610,3610,3610,3610,3610,3610,3611,2,2,359,360,
271,272,94,94,94,94,94,94,94,94,94,94,94,94,271,272,271,272,5193,5194,5195,2,2,2,2,2,2,2,2,2,2,2,2,2,2,2,2,2,2,2,2,2,2,2,2,2,2,2,271,272,
359,360,94,94,94,94,94,94,94,94,94,94,94,94,359,360,359,360,5193,5194,5195,2,2,2,2,2,2,2,2,2,2,2,2,2,2,2,2,2,2,2,2,2,2,2,2,2,2,2,359,360,
271,272,94,94,94,94,94,94,94,94,94,94,94,94,271,272,271,272,5193,5194,5195,2,2,2,2,2,2,2,2,2,2,2,2,2,2,2,2,2,2,2,2,2,2,2,2,94,94,94,271,272,
359,360,94,94,94,94,94,94,94,94,94,94,94,94,359,360,359,360,5193,5194,5195,2,2,2,2,2,2,2,2,2,2,2,94,94,94,94,94,94,94,94,94,94,94,94,94,94,94,94,359,360,
271,272,94,94,94,94,94,94,94,94,94,94,94,94,271,272,271,272,5193,5194,5195,2,2,2,2,2,2,2,2,2,2,2,94,94,94,94,94,94,94,94,94,94,94,94,94,94,94,94,271,272,
359,360,3610,3610,3610,3610,3610,3610,3611,2,2,2,3609,3610,359,360,359,360,5193,5194,5195,2,2,2,2,2,2,2,2,2,2,2,94,94,94,94,94,94,94,94,94,94,94,94,94,94,94,94,359,360,
271,272,153,154,155,156,157,158,268,2,2,2,153,154,2,2,2,2,5193,5194,5195,2,441,442,442,444,2,2,793,794,795,796,271,272,271,272,94,94,94,94,94,94,94,94,94,94,94,94,271,272,
359,360,2,2,2,2,2,2,2,5105,5106,5107,2,2,2,2,2,2,5193,5194,5195,5,529,530,531,532,5,5,881,882,883,884,359,360,359,360,94,94,94,94,94,94,94,94,94,94,94,94,359,360,
271,272,2,2,2,2,2,2,2,5193,5194,5195,2,2,2,2,2,2,5193,5194,5195,5,617,618,619,620,5,5,969,970,971,972,271,272,271,272,271,272,94,94,94,94,94,94,94,94,94,94,271,272,
359,360,2820,2821,2821,2821,2821,2822,2,5193,5194,5195,2,2,2,2,2,2,5193,5194,5195,5,1057,706,707,708,5,5,1057,1058,1059,1060,359,360,359,360,359,360,94,94,94,94,94,94,94,94,94,94,359,360,
271,272,2908,2909,2909,2909,2909,2910,2,5193,5194,5195,2,2,2,2,2,2,5193,5194,5195,5,5105,5106,5107,5,5,5,5105,5106,5107,5,271,272,271,272,271,272,94,94,94,94,94,94,94,94,94,94,271,272,
359,360,2908,2909,2909,2909,2909,2910,2,5193,5194,5195,2,2,2,2,2,2,5193,5194,5195,5,5193,5194,5195,5,5,5,5193,5194,5195,5,359,360,359,360,359,360,94,94,94,94,94,94,94,94,94,94,359,360,
271,272,2908,2909,2909,2909,2909,2910,2,5193,5194,5195,2,2,2,2,2,2,5193,5194,5195,5,5193,5194,5195,5,5,5,5193,5194,5195,5,271,272,271,272,271,272,94,94,94,94,94,94,94,94,94,94,271,272,
359,360,2908,2909,2909,2909,2909,2910,2,5193,5194,5194,5106,5106,5106,5106,5106,5106,5194,5194,5194,5106,5194,5194,5194,5106,5106,5106,5194,5194,5195,2,359,360,359,360,359,360,94,94,94,94,94,94,94,94,94,94,359,360,
271,272,2908,2909,2909,2909,2909,2910,2,5193,5194,5194,5194,5194,5194,5194,5194,5194,5194,5194,5194,5194,5194,5194,5194,5194,5194,5194,5194,5194,5195,2,271,272,271,272,271,272,94,94,94,94,94,94,94,94,94,94,271,272,
359,360,2908,2909,2909,2909,2909,2910,2,5193,5194,5194,5194,5194,5194,5194,5194,5194,5194,5194,5194,5194,5194,5194,5194,5194,5194,5194,5194,5194,5195,2,359,360,359,360,359,360,94,94,94,94,94,94,94,94,94,94,359,360,
271,272,2908,2909,2909,2909,2909,2910,2,5193,5194,5194,5194,5194,5194,5194,5194,5194,5194,5194,5194,5194,5194,5194,5194,5194,5194,5194,5194,5194,5195,2,271,272,271,272,271,272,94,94,94,94,94,94,94,94,94,94,271,272,
359,360,2908,2909,2909,2909,2909,2910,2,5193,5194,5194,5194,5194,5194,5194,5194,5194,5194,5194,5194,5194,5194,5194,5194,5194,5194,5194,5194,5194,5195,2,359,360,359,360,359,360,94,94,94,94,94,2,2,2,2,2,359,360,
271,272,2908,2909,2909,2909,2909,2910,2,5193,5194,5194,5194,5194,5194,5194,5194,5194,5194,5194,5194,5194,5194,5194,5194,5194,5194,5194,5194,5194,5195,2,271,272,271,272,271,272,94,94,94,94,94,2,2,2,2,2,271,272,
359,360,2996,2997,2997,2997,2997,2998,2,5281,5282,5282,5282,5282,5282,5282,5282,5282,5282,5282,5282,5282,5282,5282,5282,5282,5282,5282,5282,5282,5283,2,359,360,359,360,359,360,94,94,94,94,2,2,2,2,2,2,359,360,
271,272,271,272,271,272,271,272,271,272,271,272,271,272,271,272,271,272,271,272,271,272,271,272,271,272,271,272,271,272,271,272,271,272,271,272,271,272,271,272,271,272,271,272,271,272,271,272,271,272,
359,360,359,360,359,360,359,360,359,360,359,360,359,360,359,360,359,360,359,360,359,360,359,360,359,360,359,360,359,360,359,360,359,360,359,360,359,360,359,360,359,360,359,360,359,360,359,360,359,360
</data>
 </layer>
 <layer id="9" name="Capa de patrones 2" width="50" height="40">
  <data encoding="csv">
0,0,0,0,0,0,0,0,0,0,0,0,0,0,0,0,0,0,0,0,0,0,0,0,0,0,0,0,0,0,0,0,0,0,0,0,0,0,0,0,0,0,0,0,0,0,0,0,0,0,
0,0,0,0,0,0,0,0,0,0,0,0,0,0,0,0,0,0,0,0,0,0,0,0,0,0,0,0,0,0,0,0,0,0,0,0,0,0,0,0,0,0,0,0,7083,0,6073,6074,0,0,
0,0,0,0,0,0,0,0,0,0,0,0,0,0,0,0,0,0,0,0,0,0,0,0,0,0,0,0,0,0,0,0,0,0,0,0,0,0,0,0,0,0,0,0,0,0,6083,6084,0,0,
0,0,0,0,0,0,0,0,0,0,0,0,0,0,0,0,0,0,0,0,0,0,0,0,0,0,0,0,0,0,0,0,0,0,0,0,0,0,0,0,5040,0,0,0,0,0,0,0,0,0,
0,0,0,0,7083,0,6075,6076,0,0,0,0,0,0,0,0,0,0,0,0,0,0,0,0,0,0,0,0,0,0,0,0,0,4862,0,0,0,0,0,0,0,0,0,0,0,0,0,0,0,0,
0,0,0,0,0,0,6085,6086,0,0,0,0,0,0,0,0,0,0,0,0,0,0,0,0,0,0,0,0,0,0,0,0,0,0,0,0,0,0,0,0,0,0,0,0,0,0,0,0,0,0,
0,0,5040,0,0,0,0,0,0,0,5125,0,0,0,0,0,0,0,0,0,0,0,0,0,0,0,0,0,0,0,0,0,0,0,0,0,0,0,0,0,0,0,0,0,0,0,0,0,0,0,
0,0,0,0,0,0,0,0,0,0,0,0,0,0,0,0,0,0,0,0,0,0,0,0,0,0,0,0,0,0,0,0,0,7111,0,0,0,0,0,0,0,0,0,0,0,0,0,0,0,0,
0,0,0,0,0,0,0,0,0,0,0,0,0,0,0,0,0,0,0,0,0,0,0,0,0,0,0,0,0,0,0,0,0,0,0,0,0,0,0,0,0,0,0,0,0,0,0,5125,0,0,
0,0,0,0,0,0,0,0,0,0,0,0,0,0,0,0,0,0,0,0,0,0,0,0,0,0,0,0,0,0,0,0,0,0,0,0,0,0,0,0,0,0,0,0,0,0,0,0,0,0,
0,0,0,0,0,0,0,0,0,0,0,0,0,0,0,0,0,0,0,0,0,0,0,0,0,0,0,0,0,0,0,0,0,0,0,0,0,0,0,0,0,0,0,0,0,0,0,0,0,0,
0,0,0,0,0,0,0,0,0,0,0,0,0,0,0,0,0,0,0,0,0,0,0,0,0,0,0,0,0,0,0,0,0,0,0,0,0,0,0,0,0,0,0,0,0,0,0,0,0,0,
0,0,0,0,0,0,0,0,0,0,0,0,0,4862,0,0,0,0,0,5040,0,0,0,0,0,0,0,0,0,0,0,0,0,0,0,0,0,0,0,0,0,0,0,0,0,0,0,0,0,0,
0,0,0,0,0,0,0,0,0,0,0,0,0,0,0,0,0,0,0,0,0,0,0,0,0,0,0,0,0,0,0,0,0,0,0,0,0,0,0,0,0,0,0,0,0,0,0,0,0,0,
0,0,0,0,0,0,0,0,0,0,0,0,0,0,0,0,0,0,0,0,0,0,0,0,0,0,0,0,0,0,0,0,0,0,0,0,0,0,0,0,0,0,0,0,0,0,0,0,0,0,
0,0,0,0,0,0,0,0,0,0,0,0,0,0,0,0,0,0,0,0,0,0,0,0,0,0,0,0,0,0,0,0,0,0,0,0,0,0,0,0,0,0,0,0,0,0,7135,0,5125,0,
0,0,0,0,0,0,0,0,0,0,0,0,0,0,0,0,0,0,0,0,0,0,0,0,0,0,0,0,0,0,0,0,0,0,0,0,0,0,0,0,0,0,0,0,0,0,0,0,0,0,
0,0,0,0,0,0,0,0,0,0,0,0,0,0,0,0,0,0,0,0,0,0,0,0,0,0,0,0,0,0,0,0,0,0,0,0,0,0,0,0,0,0,0,0,0,0,0,0,0,0,
0,0,0,0,0,0,0,0,0,0,0,0,0,0,0,0,0,0,0,0,7122,0,0,0,0,0,0,0,0,0,0,0,0,0,0,0,0,0,0,0,0,0,0,0,0,0,0,0,0,0,
0,0,0,0,0,0,0,0,0,0,0,0,0,0,0,0,0,0,0,0,0,0,0,0,0,0,0,0,0,0,0,0,0,0,0,0,0,0,0,0,5040,0,0,0,0,0,0,0,0,0,
0,0,0,0,0,0,0,0,0,0,0,0,0,0,0,0,0,0,0,0,0,0,0,0,0,0,0,0,0,0,0,0,0,0,0,0,0,0,0,0,0,0,0,0,0,0,0,0,0,0,
0,0,0,0,0,0,0,0,0,0,0,0,0,0,0,0,0,0,0,0,0,0,0,0,0,0,0,0,0,0,0,0,0,0,0,0,0,0,0,0,0,0,0,0,0,0,0,0,0,0,
0,0,0,0,0,0,0,0,0,0,0,0,0,0,0,0,0,0,0,0,0,0,0,0,0,0,0,0,0,0,0,0,0,0,0,0,0,0,0,0,0,0,0,0,0,0,0,0,0,0,
0,0,0,0,0,0,0,0,0,0,0,0,0,0,0,0,0,0,0,0,0,0,0,0,0,0,0,0,0,0,0,0,0,0,0,0,0,0,0,0,0,0,0,0,0,0,0,0,0,0,
0,0,0,0,0,0,0,0,268,0,0,0,0,0,0,0,0,0,0,0,0,0,0,0,0,0,0,4862,0,0,0,0,0,0,0,0,0,0,0,0,0,0,0,0,0,0,0,0,0,0,
0,0,4862,0,0,0,0,0,0,0,0,0,0,0,0,0,0,0,0,0,0,0,0,0,0,0,0,0,0,0,0,0,0,0,0,0,0,0,0,0,0,0,0,0,0,0,0,0,0,0,
0,0,0,0,0,0,0,0,0,0,0,0,0,0,0,0,0,0,0,0,0,0,0,0,0,0,0,0,0,0,0,0,0,0,0,0,0,0,0,0,0,0,0,0,0,0,0,0,0,0,
0,0,0,0,0,0,0,0,0,0,0,0,0,0,0,0,0,0,0,0,0,0,0,0,0,0,0,0,0,0,0,0,0,0,0,0,0,0,0,0,0,0,0,0,0,0,0,0,0,0,
0,0,0,0,0,0,0,0,0,0,0,0,0,0,0,0,0,0,0,0,0,0,0,0,0,0,0,0,0,0,0,0,0,0,0,0,0,0,0,0,0,0,0,0,0,0,0,0,0,0,
0,0,0,0,0,0,0,0,0,0,0,0,0,0,0,0,0,0,0,0,0,0,0,0,0,0,0,0,0,0,0,0,0,0,0,0,0,0,0,0,0,0,0,0,0,0,0,0,0,0,
0,0,0,0,0,0,5040,0,0,0,0,0,0,0,0,0,0,0,0,0,0,0,0,0,0,0,0,0,0,0,0,0,0,0,0,0,0,0,0,0,0,0,0,0,0,0,0,0,0,0,
0,0,0,0,0,0,0,0,0,0,0,0,0,0,0,0,0,0,0,0,0,0,0,0,0,0,0,0,0,0,0,0,0,0,0,0,0,0,0,0,0,0,0,0,0,0,0,0,0,0,
0,0,0,0,0,0,0,0,0,0,0,0,0,0,0,0,0,0,0,0,0,0,0,0,0,0,0,0,0,0,0,0,0,0,0,0,0,0,0,0,0,0,0,0,0,0,0,0,0,0,
0,0,0,0,0,0,0,0,0,0,0,0,0,0,0,0,0,0,0,0,0,0,0,0,0,0,0,0,0,0,0,0,0,0,0,0,0,0,0,0,0,0,0,0,0,0,0,0,0,0,
0,0,0,0,0,0,0,0,0,0,0,0,0,0,0,0,0,0,0,0,0,0,0,0,0,0,0,0,0,0,0,0,0,0,0,0,0,0,0,0,0,0,0,0,0,0,0,0,0,0,
0,0,0,6073,6074,0,0,0,5040,0,0,0,0,0,0,0,0,0,0,0,0,0,0,0,0,0,0,0,0,0,0,0,0,0,0,0,0,0,0,0,0,0,0,0,0,0,0,0,0,0,
0,0,0,6083,6084,0,0,0,0,0,0,0,0,0,0,0,0,0,0,0,0,0,0,0,0,0,0,0,0,0,0,0,0,0,0,0,0,0,0,0,0,0,0,0,0,0,6075,6076,0,0,
0,0,0,0,0,0,0,0,0,0,0,0,0,0,0,0,0,0,0,0,0,0,0,0,0,0,0,0,0,0,0,5125,0,0,0,0,0,0,0,0,0,0,0,0,0,0,6085,6086,0,0,
0,0,0,0,0,0,0,0,0,0,0,0,0,0,0,0,0,0,0,0,0,0,0,0,0,0,0,0,0,0,0,0,0,0,0,0,0,0,0,0,0,0,0,0,0,0,0,0,0,0,
0,0,0,0,0,0,0,0,0,0,0,0,0,0,0,0,0,0,0,0,0,0,0,0,0,0,0,0,0,0,0,0,0,0,0,0,0,0,0,0,0,0,0,0,0,0,0,0,0,0
</data>
 </layer>
</map>
